X:1
T:Title
%%score { ( 1 3 4 ) | ( 2 5 ) }
L:1/8
Q:1/4=106
M:4/4
K:C
V:1 treble nm="Grand Piano"
V:3 treble 
V:4 treble 
V:2 bass 
V:5 bass 
V:1
 C2 E[EG] [Ec]3 E | FGAB c2 c2 | d2 dc B2 G2 | [GB][Gd][^Fc][FA] G4 | %4
w: J.~M.~Harris * * * *||||
 [DF]2 [DF][CE] [B,D]2 [B,D]2 | [CE][DF][EG][FA] [EG]4 | [FA][GB][Gc]d ecG[Ec] | %7
w: |||
 [Fd]2 [FB]2 [Ec]4 | z FFF z ABc | d6 z2 | f6 z2 | e6 z2 | e6 z2 | c6 z2 | e4 z4 | [Ec]6 z2 |] %16
w: |||||||||
V:2
 [C,E,]2 [C,G,C][C,C] [C,G,]3 E, | F,G,A,B,[K:treble] C2 C2 | %2
 [G,B,G]2 [G,B,G][G,DA] [G,DG]2[K:bass] [G,B,D]2 | [D,D][D,B,][D,A,][D,C] [G,B,]4 | %4
 [G,,G,]2 [G,,G,][G,,G,] [G,,G,]2 [G,,G,]2 | [C,G,][C,G,][C,C][C,C] [C,C]4 | %6
 [F,C][D,D][E,C][K:treble][G,B,G] [CG][K:bass][G,CE][E,C][C,G,] | [G,,G,]2 [G,,G,]2 [C,G,]4 | %8
 [G,B,F][G,B,][G,B,][G,B,] [G,B,]2 [G,B,F]2 | [G,B,F][K:bass][G,B,][G,B,][G,B,] [G,B,]2 z2 | %10
 [G,DG][G,D][G,D][G,D] [G,D][G,B,G][G,DF][G,B,F] | [C,C][C,C][E,C][G,C] C2 z2 | z4 z2 .D2 | %13
 z4 z2[K:treble] .F2 | [G,CG][G,C][G,C][G,CE] [G,CG]2[K:bass] [G,,B,G]2 | [C,G,]6 z2 |] %16
V:3
 x8 | x8 | x8 | x8 | x8 | x8 | x8 | x8 | G6 z2 | z FFF z BAG | z GGG GdBG | EGGG G2 z2 | %12
 ^GGGG z Bed | z EEE GGAf | z GGc e2 d2 | x8 |] %16
V:4
 x8 | x8 | x8 | x8 | x8 | x8 | x8 | x8 | z4 F2 z2 | z4 F2 z2 | x8 | x8 | z4 ^G2 z2 | x8 | x8 | %15
 x8 |] %16
V:5
 x8 | x4[K:treble] x4 | x6[K:bass] x2 | x8 | x8 | x8 | x3[K:treble] x2[K:bass] x3 | x8 | x8 | %9
 x[K:bass] x7 | x8 | x8 | [E,B,][E,B,][E,B,][E,B,] [E,B,]2 [^G,E]-[G,B,E] | %13
 [A,CE][A,C][A,C][A,C] [E,C]2[K:treble] [F,C]-[F,CA] | x6[K:bass] x2 | x8 |] %16

